!!!OTL: Dem Land wo meine Wiege stand.
!!!OTL-incipit:DEM LAND WO MEINE WIEGE STAND
!!!COM: W. Tschirch
!!!ARE: Europa, Mitteleuropa, Deutschland
!!!SCT: F0457
!!!TXL: @@DE
!!!YEM: Copyright 1995, estate of Helmut Schaffrath.
**kern	**text
*ICvox	*
*M4/4	*
*met(c)	*
*k[f#c#g#]	*
*A:	*
!LO:TX:a:t=Mäßig.	!
!LO:TX:a:t=Für gemischten Chor.	!
{4e	1._Dem
=1	=1
4.a	Land,
8a	wo
4g#	mei-
4a	-ne
=2	=2
4.b/	Wie-
8cc#/	-ge
4b/}	ſtand,
{4b/	iſt
=3	=3
4cc#/	doch
4cc#/	kein
4.dd#/	an-
8dd#/	-dres
=4	=4
2ee/	gleich;
4r}	es
{4e	iſt
=5	=5
4.e	.
8e	mein
4f#	lie-
4e	-bes
=6	=6
4.cc#/	Va-
8b/	-ter-
4a}	-land,
{4a	und
=7	=7
4b/	heißt
4b/	das
4.dd/	deut-
8dd/	-ſche
=8	=8
(2cc#/	Reich,
4cc#/)}	.
{4cc#/	und
=9	=9
4b/	heißt
4ff#/	das
4.ee/	deut-
8g#	-ſche
=10	=10
[2a/	Reich!
4a];}	.
==	==
!!!AGN: Vaterlands -, Heimat - Lied
!!!ONB: ESAC (Essen Associative Code) Database: FINK
!!!AMT: simple quadruple
!!!AIN: vox
!!!EED: Helmut Schaffrath
!!!EEV: 1.0
!!Text: J. Sturm
!!!GTL: Vaterlands- und Heimathslieder.
!!!source: Musikalischer Hausschatz der Deutschen. Eine Sammlung von über 1000 Liedern und Gesängen mit Singstimmen und Klavierbegleitung. Leipzig, Litterarisches Verlags-Haus.
!!!page: 284
!!!ENC: Anna Maria Matuszewska
!!!EEV: 2024/03/14
*-	*-
